!!!!SEGMENT: pl-wn--sd-xvi-qu-273--126_gomolka-mikolaj--gdy-z-okrutnej-babilony.krn
!!!cenid: 15xx:331
!!!COM: Gomółka, Mikołaj
!!!COM-rismid: pe30013343
!!!CDT: ~1535->1591/04/30
!!!CNT: Polish
!!!GTL: Melodiae na psalterz polski
!!!OTL: CXXVI. Gdy z okrutnej Babilony
!!!ONB: In conuertendo dominus
!!!PDT: 1580
!!!AGN: Sacred
!!!SMS-siglum: PL-Wn
!!!SMS-shelfmark: SD XVI.Qu.273
!!!SMS-shelfwork: 126 G
!!!NIFC-rismid:
!!!ONB-nifc: Melodiae na psalterz polski
**kern	**text	**kern	**text	**kern	**text	**kern	**text
*part4	*part4	*part3	*part3	*part2	*part2	*part1	*part1
*staff4	*staff4	*staff3	*staff3	*staff2	*staff2	*staff1	*staff1
*clefF4	*	*clefC4	*	*clefC3	*	*clefC1	*
*k[]	*	*k[]	*	*k[]	*	*k[]	*
*g:	*	*g:	*	*g:	*	*g:	*
*M4/2	*	*M4/2	*	*M4/2	*	*M4/2	*
*met(C)	*	*met(C)	*	*met(C)	*	*met(C)	*
=1-	=1-	=1-	=1-	=1-	=1-	=1-	=1-
1G\	G-	1d\	G-	1g\	G-	1b\	G-
2G\	-Dy	2d\	-Dy	2g\	-Dy	2b\	-Dy
2G\	ʒ	2d\	ʒ	2g\.	ʒ o-	2b\	ʒ o-
=2-	=2-	=2-	=2-	=2-	=2-	=2-	=2-
2E\	okrut-	4e\	.	.	.	4cc\	-krut-
.	.	4d\	okrut-	4f\	-krut-	4b\	.
1A\	.	2.c\	-néy	1e\	-néy	1a\	-néy
.	.	8B\L	.	.	.	.	.
.	.	8c\J	Bá-	.	.	.	.
2D/	-néy	4d\	-bi-	2f\	.	4b\	.
.	.	4c\	-lo-	.	.	4a\	Bá-
=3-	=3-	=3-	=3-	=3-	=3-	=3-	=3-
1E\	.	4B\	-ny	2.e\	Bá-	4g/	-bilo-
.	.	4A\	.	.	.	2a\	-ny
.	.	2B\	Páń-	.	.	.	.
.	.	.	.	4d\	-bilo-	4g/	.
2AA/	Bábi-	2A/	-ſki	2c/	-ny	2a\	.
4D\	-lo-	2A/	.	2d\	.	4f/	Páń-
4E\	-ny	.	.	.	.	4g/	.
=4-	=4-	=4-	=4-	=4-	=4-	=4-	=4-
4F\	Páń-	2A/	lud	2c/	Páń-	4a\	-ſki
4E\	-ſki	.	.	.	.	4g\	.
4D/	lud	2F/	.	4f\	-ſki	4b-\X	lud
4C/	.	.	.	4e\	.	4a\	.
1BB-/X	był	1B\	był	4d\	lud	4g/	był
.	.	.	.	4c\	.	4f/	.
.	.	.	.	2d\	był	2.g/	wyʒw-
=5-	=5-	=5-	=5-	=5-	=5-	=5-	=5-
2C/	wyʒ-	2A/	.	2c/	wyʒ-	.	.
.	.	.	.	.	.	4f/	.
2D/	-wo-	4G/	wyʒ-	2B-/X	-wo-	1f/	-olo
.	.	4F/	.	.	.	.	.
1C/	-lo-	4G/	-wo-	2.c\	-lo-	.	.
.	.	4A\	-lo-	.	.	.	.
.	.	2G/	.	.	.	2e/	.
.	.	.	.	4B-/	.	.	.
=6-	=6-	=6-	=6-	=6-	=6-	=6-	=6-
!!LO:PB:g=original
2FF/	-ny,	2F/	-ny,	2A/	-ny,	2f/	-ny,
2C/	.	2G/	.	2c/	.	2e/	.
2AA/	Cʒło-	2A/	Cʒło-	2c/	Cʒło-	2e/	Cʒło-
2AA/	-wie-	2A/	-wie-	2c/	-wie-	2e/	-wie-
=7-	=7-	=7-	=7-	=7-	=7-	=7-	=7-
2E\	-ko-	2G#/X	-ko-	2B/	-ko-	2e/	-ko-
1AA/	-wi	2A/	-wi	1e\	-wi	1cc\	-wy
.	.	1A\	.	.	.	.	.
2F\	ták	.	.	2c/	.	2a\	.
=8-	=8-	=8-	=8-	=8-	=8-	=8-	=8-
1E\	ſye	2.B\	ták	1G/	ták	1g\	ták
.	.	4c\	ſye	.	.	.	.
2D/	ʒdá-	2d\	ʒdá-	2A/	ſye	2f#/X	ſye
2D/	-ło,	2A/	-ło,	2d\	ʒdá-	2a\	.
=9-	=9-	=9-	=9-	=9-	=9-	=9-	=9-
2C#/X	Ja-	2A/	Ja-	2e\	-ło,	2a\	ʒdáło
2D/	-ko-	2A/	-ko-	2f\	.	2a\	.
1GG/	-by	1G/	-by	2e\	Ja-	1b-\X	Jako-
.	.	.	.	1d\	-ko-	.	.
=10-	=10-	=10-	=10-	=10-	=10-	=10-	=10-
2GG/	mu	2.G/	mu	.	.	2b\	-by
2GG/	.	.	.	4c#X/	-by	2b\	mu
.	.	4F/	ſnić	4B/	mu	.	.
1AA/	ſnić ſye	4E/	.	4c#/	.	2.a\	.
.	.	4D/	ſye	2d\	ſnić	.	.
.	.	2E/	miá-	.	.	.	.
.	.	.	.	4c#/	ſye	4g/	ſnić ſye
=11-	=11-	=11-	=11-	=11-	=11-	=11-	=11-
000D\	miáło.	000D/	-ło.	000d/	miáło.	000f#X/	miálo.
==-	==-	==-	==-	==-	==-	==-	==-
*-	*-	*-	*-	*-	*-	*-	*-
!!!RDF**kern: l = terminal long
!!!system-decoration: s1,s2,s3,s4
!!!ENC: Leszek Kubiak
!!!END: data 2020-02-20
!!!URL-scan: https://polona.pl/item/melodiae-na-psalterz-polski,Nzk3MTM4ODQ/296 Scan on Polona
!!!IIIF: https://polona.pl/iiif/item/Nzk3MTM4ODQ/manifest.json
